**kern	**kern	**dynam
*part1	*part1	*part1
*staff2	*staff1	*
*I"Piano	*	*
*clefF4	*clefG2	*
*k[b-e-]	*k[b-e-]	*
=1	=1	=1
*	*^	*
4G 4B-	8g'L	4d	.
.	8dd'	.	.
8G 8B-	8g'J	8d	.
=	=	=	=
4F#X 4c	(8.aL	4d	.
.	16b-K	.	.
8F# 8c	8aJ)	8d	.
=	=	=	=
4G 4B-	(8gL	4d	<
.	8ee-	.	.
8G 8B-	8gJ) 8dd	8d	.
=	=	=	=
4A 4e-	(8.ccL	4g	.
.	16ddK	.	.
8A 8e-	8ccJ)	8f	.
*	*v	*v	*
=	=	=
8F'L	8ff'L	[ f
8A'	8cc'	.
8c'J	8a'J	.
=	=	=
*	*^	*
4A 4e-	(8.ccL	4g	.
.	16ddK	.	.
8A 8e-	8ccJ)	8f	.
*	*v	*v	*
=	=	=
8F'L	8ff'L	.
8A'	8cc'	.
8e-'J	8f'J	.
=	=	=
*-	*-	*-
!!!system-decoration: {(s1,s2)}
